nameplates/yamato.svg

<svg width="1778" height="377" viewBox="0 0 1778 377" fill="none" xmlns="http://www.w3.org/2000/svg">
<g clip-path="url(#clip0_22600_484)">
<path d="M220.591 356.183H216.423L217.958 244.65L218.507 243.335L120.881 243.116V243.335V356.293H116.712C111.008 356.293 106.292 361.004 106.292 366.701V377.11H230.792V366.701C230.792 361.004 226.076 356.293 220.372 356.293L220.591 356.183ZM302.531 235.447L395.331 232.051V57.3005C395.331 47.8782 399.499 44.2627 405.751 44.2627C410.907 44.2627 415.075 46.8922 416.172 53.5754V231.174L511.056 227.668V206.632C511.056 71.8721 495.918 28.5955 405.751 28.5955C315.584 28.5955 302.531 71.7626 302.531 205.537V235.337V235.447ZM216.203 237.309L320.74 20.8166H324.36C330.064 20.8166 334.78 17.6393 334.78 13.476V0L134.921 1.75298L205.015 180.666C206.002 183.296 206.55 185.925 206.55 188.007C206.55 194.8 202.382 197.867 198.214 197.867C194.045 197.867 189.877 194.8 187.793 188.445L118.248 10.0796C116.164 4.38245 111.996 1.75298 106.292 1.75298H0V15.3386C0 19.5019 4.71676 22.6792 10.4208 22.6792H14.0406L113.422 242.459L216.313 237.419L216.203 237.309ZM870.517 214.521V206.742C870.517 72.4199 855.379 28.705 771.465 28.705C745.358 28.705 726.601 31.3345 707.405 48.9738C687.55 31.2249 669.89 28.705 641.26 28.705C554.713 28.705 548.461 79.2127 548.461 205.646V226.353L641.26 222.957V57.3005C641.26 47.8782 645.429 44.2627 651.681 44.2627C656.398 44.2627 660.018 46.3444 661.553 52.0416C662.102 53.5754 662.102 55.2188 662.102 57.3005V222.19L754.901 218.794V57.3005C754.901 47.8782 759.07 44.2627 765.322 44.2627C770.478 44.2627 774.207 46.8922 775.194 52.5894C775.743 54.1232 775.743 55.6571 775.743 57.3005V218.027L870.627 214.521H870.517ZM1598.54 29.472C1505.31 29.472 1429.29 102.33 1423.91 194.142L1772.08 181.324C1760.67 95.6469 1687.5 29.472 1598.54 29.472ZM1400.44 31.7727H1149.79C1142.99 31.7727 1139.37 35.3883 1139.37 42.181V180.666C1139.37 187.459 1142.99 191.075 1149.79 191.075H1196.19C1202.99 191.075 1206.61 187.459 1206.61 180.666V52.5894H1217.03C1223.84 52.5894 1227.46 56.2049 1227.46 62.9977V201.373L1322.78 197.867V62.9977C1322.78 56.2049 1326.4 52.5894 1333.2 52.5894H1343.62V180.666C1343.62 187.459 1347.24 191.075 1354.04 191.075H1400.44C1407.24 191.075 1410.86 187.459 1410.86 180.666V42.181C1410.86 35.3883 1407.24 31.7727 1400.44 31.7727ZM1000.83 57.3005C1000.83 47.8782 1005 44.2627 1011.25 44.2627C1016.41 44.2627 1020.69 46.8922 1021.67 53.5754V208.824L1116.56 205.318C1116.56 71.5434 1101.2 28.5955 1011.25 28.5955C921.304 28.5955 908.032 71.7626 908.032 205.537V212.987L1000.83 209.59V57.3005ZM554.604 356.183H550.435C544.731 356.183 540.014 360.894 540.014 366.592V377H636.982C643.783 377 647.403 373.384 647.403 366.592V237.309L554.604 238.186V356.183ZM1336.27 356.183H1328.92V230.845L1233.6 231.722V356.074H1224.16C1218.46 356.074 1213.74 360.785 1213.74 366.482V376.89H1346.58V366.482C1346.58 360.785 1341.86 356.074 1336.16 356.074L1336.27 356.183ZM1431.81 229.969C1445.19 313.345 1517.48 377 1604.69 377C1691.89 377 1765.93 311.592 1778 226.682L1431.81 229.969ZM1124.67 356.183H1122.59V232.817L1027.71 233.694L1006.86 233.913L914.065 234.79V356.183H909.896C904.192 356.183 899.476 360.894 899.476 366.592V377H996.443C1003.24 377 1006.86 373.384 1006.86 366.592V261.961H1027.71V322.877C1027.71 345.227 1031.33 377 1078.27 377H1135.09V366.592C1135.09 360.894 1130.38 356.183 1124.67 356.183ZM519.173 356.183H517.089V238.515L437.014 239.282L422.315 239.501L401.473 239.72L308.674 240.815V356.183H304.505C298.801 356.183 294.085 360.894 294.085 366.592V377H391.053C397.853 377 401.473 373.384 401.473 366.592V261.961H422.315V322.877C422.315 345.227 425.935 377 472.883 377H529.703V366.592C529.703 360.894 524.987 356.183 519.283 356.183H519.173ZM878.744 356.183H876.66V235.118L781.776 235.995V366.592C781.776 373.384 785.396 377 792.197 377H889.164V366.592C889.164 360.894 884.448 356.183 878.744 356.183ZM668.245 330.217C668.245 335.367 668.793 340.078 669.78 344.241C675.045 365.606 692.157 377 720.348 377H750.623C757.424 377 761.044 373.384 761.044 366.592V236.214L668.245 237.09V330.108V330.217Z" fill="white"/>
</g>
<defs>
<clipPath id="clip0_22600_484">
<rect width="1778" height="377" fill="white"/>
</clipPath>
</defs>
</svg>

<svg xmlns="http://www.w3.org/2000/svg" width="1778" height="377" fill="none"><g clip-path="url(#a)"><path fill="#fff" d="M220.591 356.183h-4.168l1.535-111.533.549-1.315-97.626-.219v113.177h-4.169c-5.704 0-10.42 4.711-10.42 10.408v10.409h124.5v-10.409c0-5.697-4.716-10.408-10.42-10.408zm81.94-120.736 92.8-3.396V57.301c0-9.423 4.168-13.038 10.42-13.038 5.156 0 9.324 2.63 10.421 9.312v177.599l94.884-3.506v-21.036c0-134.76-15.138-178.036-105.305-178.036s-103.22 43.167-103.22 176.941zm-86.328 1.862L320.74 20.817h3.62c5.704 0 10.42-3.178 10.42-7.341V0L134.921 1.753l70.094 178.913c.987 2.63 1.535 5.259 1.535 7.341 0 6.793-4.168 9.86-8.336 9.86s-8.337-3.067-10.421-9.422L118.248 10.08c-2.084-5.698-6.252-8.327-11.956-8.327H0v13.586c0 4.163 4.717 7.34 10.42 7.34h3.62l99.382 219.78 102.891-5.04zm654.314-22.788v-7.779c0-134.322-15.138-178.037-99.052-178.037-26.107 0-44.864 2.63-64.06 20.269-19.855-17.75-37.515-20.269-66.145-20.269-86.547 0-92.799 50.508-92.799 176.941v20.707l92.799-3.396V57.301c0-9.423 4.169-13.038 10.421-13.038 4.717 0 8.337 2.081 9.872 7.779.549 1.533.549 3.177.549 5.258v164.89l92.799-3.396V57.301c0-9.423 4.169-13.038 10.421-13.038 5.156 0 8.885 2.63 9.872 8.326.549 1.534.549 3.068.549 4.712v160.726l94.884-3.506zM1598.54 29.472c-93.23 0-169.25 72.858-174.63 164.67l348.17-12.818c-11.41-85.677-84.58-151.852-173.54-151.852m-198.1 2.3h-250.65c-6.8 0-10.42 3.616-10.42 10.409v138.485c0 6.793 3.62 10.409 10.42 10.409h46.4c6.8 0 10.42-3.616 10.42-10.409V52.589h10.42c6.81 0 10.43 3.616 10.43 10.409v138.375l95.32-3.506V62.997c0-6.792 3.62-10.408 10.42-10.408h10.42v128.077c0 6.793 3.62 10.409 10.42 10.409h46.4c6.8 0 10.42-3.616 10.42-10.409V42.181c0-6.793-3.62-10.408-10.42-10.408m-399.61 25.529c0-9.423 4.17-13.038 10.42-13.038 5.16 0 9.44 2.63 10.42 9.312v155.249l94.89-3.506c0-133.775-15.36-176.723-105.31-176.723-89.946 0-103.218 43.168-103.218 176.942v7.45l92.798-3.397zM554.604 356.183h-4.169c-5.704 0-10.421 4.711-10.421 10.409V377h96.968c6.801 0 10.421-3.616 10.421-10.408V237.309l-92.799.877zm781.666 0h-7.35V230.845l-95.32.877v124.352h-9.44c-5.7 0-10.42 4.711-10.42 10.408v10.408h132.84v-10.408c0-5.697-4.72-10.408-10.42-10.408zm95.54-126.214C1445.19 313.345 1517.48 377 1604.69 377c87.2 0 161.24-65.408 173.31-150.318zm-307.14 126.214h-2.08V232.817l-94.88.877-20.85.219-92.795.877v121.393h-4.169c-5.704 0-10.42 4.711-10.42 10.409V377h96.967c6.797 0 10.417-3.616 10.417-10.408V261.961h20.85v60.916c0 22.35 3.62 54.123 50.56 54.123h56.82v-10.408c0-5.698-4.71-10.409-10.42-10.409m-605.497 0h-2.084V238.515l-80.075.767-14.699.219-20.842.219-92.799 1.095v115.368h-4.169c-5.704 0-10.42 4.711-10.42 10.409V377h96.968c6.8 0 10.42-3.616 10.42-10.408V261.961h20.842v60.916c0 22.35 3.62 54.123 50.568 54.123h56.82v-10.408c0-5.698-4.716-10.409-10.42-10.409zm359.571 0h-2.084V235.118l-94.884.877v130.597c0 6.792 3.62 10.408 10.421 10.408h96.967v-10.408c0-5.698-4.716-10.409-10.42-10.409m-210.499-25.966c0 5.15.548 9.861 1.535 14.024C675.045 365.606 692.157 377 720.348 377h30.275c6.801 0 10.421-3.616 10.421-10.408V236.214l-92.799.876z"/></g><defs><clipPath id="a"><path fill="#fff" d="M0 0h1778v377H0z"/></clipPath></defs></svg>
